images/other-seat4.svg

<svg width="45" height="76" viewBox="0 0 45 76" fill="none" xmlns="http://www.w3.org/2000/svg">
<path fill-rule="evenodd" clip-rule="evenodd" d="M38.3944 4.1868C35.833 1.39323 32.2552 0 28.3243 0H17.7092C13.7759 0 10.2004 1.24396 7.63907 4.03752C5.0777 6.83346 3.85271 10.6767 4.1939 14.5934L6.5515 41.8703H39.4819L41.8395 14.4441C42.1807 10.5274 40.9557 6.97799 38.3944 4.18443V4.1868ZM40.1051 73.8222C40.1051 74.7984 39.3137 75.5922 38.3351 75.5922C37.3589 75.5922 36.5652 74.8008 36.5652 73.8222V58.3853H8.25749V73.8222C8.25749 74.7984 7.4661 75.5922 6.48752 75.5922C5.51131 75.5922 4.71755 74.8008 4.71755 73.8222V57.7598C2.35759 57.4636 0 55.215 0 52.4854V48.9478C0 46.0216 2.98312 44.2303 5.90938 44.2303H6.75053H39.2711H40.1146C43.0408 44.2303 44.8203 46.0216 44.8203 48.9478V52.4854C44.8203 55.2126 43.0503 57.4636 40.1027 57.7598V73.8222H40.1051Z" fill="white"/>
</svg>

<svg width="45" height="76" fill="none" xmlns="http://www.w3.org/2000/svg"><path fill-rule="evenodd" clip-rule="evenodd" d="M38.394 4.187C35.833 1.393 32.255 0 28.324 0H17.71C13.776 0 10.2 1.244 7.64 4.038c-2.561 2.795-3.786 6.639-3.445 10.555L6.55 41.87h32.93l2.358-27.426c.342-3.917-.883-7.466-3.445-10.26v.003zm1.711 69.635a1.77 1.77 0 01-3.54 0V58.385H8.257v15.437a1.77 1.77 0 01-3.54 0V57.76C2.358 57.464 0 55.215 0 52.485v-3.537c0-2.926 2.983-4.718 5.91-4.718h34.204c2.926 0 4.705 1.792 4.705 4.718v3.537c0 2.728-1.77 4.979-4.717 5.275v16.062h.002z" fill="#fff"/></svg>
